svg/fluentui-system-icons/ic_fluent_heart_circle_hint_24_regular.svg

<svg width="24" height="24" viewBox="0 0 24 24" fill="none" xmlns="http://www.w3.org/2000/svg">
<path d="M10.678 2.0867C11.1109 2.02948 11.5522 2 12 2C12.4478 2 12.8891 2.02948 13.322 2.0867C13.7326 2.14097 14.0215 2.51786 13.9673 2.9285C13.913 3.33914 13.5361 3.62804 13.1254 3.57376C12.7575 3.52514 12.3819 3.5 12 3.5C11.6181 3.5 11.2425 3.52514 10.8746 3.57376C10.4639 3.62804 10.087 3.33914 10.0327 2.9285C9.97848 2.51786 10.2674 2.14097 10.678 2.0867ZM21.0715 10.0327C21.4821 9.97848 21.859 10.2674 21.9133 10.678C21.9705 11.1109 22 11.5522 22 12C22 12.4478 21.9705 12.8891 21.9133 13.322C21.859 13.7326 21.4821 14.0215 21.0715 13.9673C20.6609 13.913 20.372 13.5361 20.4262 13.1254C20.4749 12.7575 20.5 12.3819 20.5 12C20.5 11.6181 20.4749 11.2425 20.4262 10.8746C20.372 10.4639 20.6609 10.087 21.0715 10.0327ZM2.9285 10.0327C3.33914 10.087 3.62804 10.4639 3.57376 10.8746C3.52514 11.2425 3.5 11.6181 3.5 12C3.5 12.3819 3.52514 12.7575 3.57376 13.1254C3.62804 13.5361 3.33914 13.913 2.9285 13.9673C2.51786 14.0215 2.14097 13.7326 2.0867 13.322C2.02948 12.8891 2 12.4478 2 12C2 11.5522 2.02948 11.1109 2.0867 10.678C2.14097 10.2674 2.51786 9.97848 2.9285 10.0327ZM10.0327 21.0715C10.087 20.6609 10.4639 20.372 10.8746 20.4262C11.2425 20.4749 11.6181 20.5 12 20.5C12.3819 20.5 12.7575 20.4749 13.1254 20.4262C13.5361 20.372 13.913 20.6609 13.9673 21.0715C14.0215 21.4821 13.7326 21.859 13.322 21.9133C12.8891 21.9705 12.4478 22 12 22C11.5522 22 11.1109 21.9705 10.678 21.9133C10.2674 21.859 9.97848 21.4821 10.0327 21.0715ZM18.075 4.05587C18.4215 4.32151 18.7544 4.61271 19.0711 4.92935C19.3877 5.246 19.6789 5.57889 19.9446 5.92544C20.1965 6.25419 20.1343 6.72497 19.8056 6.97696C19.4768 7.22895 19.006 7.16673 18.7541 6.83798C18.5283 6.54345 18.2805 6.26006 18.0104 5.99001C17.7404 5.71997 17.457 5.47212 17.1624 5.24636C16.8337 4.99437 16.7715 4.52359 17.0235 4.19485C17.2755 3.8661 17.7462 3.80388 18.075 4.05587ZM19.8056 17.0239C20.1343 17.2759 20.1965 17.7467 19.9446 18.0754C19.6789 18.422 19.3877 18.7548 19.0711 19.0715C18.7544 19.3881 18.4215 19.6793 18.075 19.945C17.7462 20.197 17.2755 20.1347 17.0235 19.806C16.7715 19.4772 16.8337 19.0065 17.1624 18.7545C17.457 18.5287 17.7404 18.2809 18.0104 18.0108C18.2805 17.7408 18.5283 17.4574 18.7541 17.1629C19.006 16.8341 19.4768 16.7719 19.8056 17.0239ZM6.97654 4.19485C7.22853 4.52359 7.16631 4.99437 6.83756 5.24636C6.54303 5.47212 6.25964 5.71997 5.98959 5.99001C5.71955 6.26006 5.4717 6.54345 5.24594 6.83798C4.99395 7.16673 4.52317 7.22895 4.19443 6.97696C3.86568 6.72497 3.80346 6.25419 4.05545 5.92544C4.32109 5.57889 4.61229 5.246 4.92893 4.92935C5.24558 4.61271 5.57847 4.32151 5.92502 4.05587C6.25377 3.80388 6.72455 3.8661 6.97654 4.19485ZM4.19443 17.0239C4.52317 16.7719 4.99395 16.8341 5.24594 17.1629C5.4717 17.4574 5.71955 17.7408 5.98959 18.0108C6.25964 18.2809 6.54303 18.5287 6.83756 18.7545C7.16631 19.0065 7.22853 19.4772 6.97654 19.806C6.72455 20.1347 6.25377 20.197 5.92502 19.945C5.57847 19.6793 5.24558 19.3881 4.92893 19.0715C4.61229 18.7548 4.32109 18.422 4.05545 18.0754C3.80346 17.7467 3.86568 17.2759 4.19443 17.0239ZM13.5222 9.84355C13.9941 9.36554 14.7729 9.39026 15.2135 9.89721C15.5907 10.3311 15.5907 10.9765 15.2135 11.4104L11.9988 15.1092L8.7841 11.4104C8.40697 10.9765 8.40697 10.3311 8.7841 9.89721C9.22472 9.39026 10.0036 9.36554 10.4755 9.84355L11.4651 10.846C11.606 10.9888 11.7982 11.0691 11.9988 11.0691C12.1994 11.0691 12.3917 10.9888 12.5326 10.846L13.5222 9.84355ZM16.3457 8.91322C15.3321 7.74696 13.5402 7.69011 12.4547 8.78976L11.9988 9.25156L11.543 8.78976C10.4574 7.69011 8.66559 7.74696 7.65195 8.91322C6.78435 9.91146 6.78435 11.3962 7.65195 12.3944L11.4328 16.7445C11.5752 16.9084 11.7817 17.0025 11.9988 17.0025C12.216 17.0025 12.4225 16.9084 12.5649 16.7445L16.3457 12.3944C17.2133 11.3962 17.2133 9.91146 16.3457 8.91322Z" fill="#212121"/>
</svg>

<svg xmlns="http://www.w3.org/2000/svg" width="24" height="24"><path d="M10.678 2.087a10.085 10.085 0 0 1 2.644 0 .75.75 0 0 1-.197 1.487 8.586 8.586 0 0 0-2.25 0 .75.75 0 0 1-.197-1.487Zm10.393 7.946a.75.75 0 0 1 .842.645 10.089 10.089 0 0 1 0 2.644.75.75 0 0 1-1.487-.197 8.572 8.572 0 0 0 0-2.25.75.75 0 0 1 .646-.842Zm-18.143 0c.411.054.7.43.646.842a8.586 8.586 0 0 0 0 2.25.75.75 0 0 1-1.487.197 10.085 10.085 0 0 1 0-2.644.75.75 0 0 1 .841-.645Zm7.105 11.039a.75.75 0 0 1 .842-.646 8.572 8.572 0 0 0 2.25 0 .75.75 0 0 1 .197 1.487 10.089 10.089 0 0 1-2.644 0 .75.75 0 0 1-.645-.841Zm8.042-17.016a10.099 10.099 0 0 1 1.87 1.87.75.75 0 0 1-1.19.912 8.585 8.585 0 0 0-1.593-1.592.75.75 0 0 1 .913-1.19Zm1.73 12.968a.75.75 0 0 1 .14 1.051 10.1 10.1 0 0 1-1.87 1.87.75.75 0 0 1-.913-1.19 8.571 8.571 0 0 0 1.592-1.592.75.75 0 0 1 1.052-.14ZM6.978 4.194a.75.75 0 0 1-.14 1.052 8.587 8.587 0 0 0-1.591 1.592.75.75 0 1 1-1.19-.913 10.087 10.087 0 0 1 1.869-1.87.75.75 0 0 1 1.052.14Zm-2.783 12.83a.75.75 0 0 1 1.052.139 8.584 8.584 0 0 0 1.592 1.591.75.75 0 1 1-.913 1.191 10.1 10.1 0 0 1-1.87-1.87.75.75 0 0 1 .14-1.051Zm9.328-7.18a1.153 1.153 0 0 1 1.691 1.566L12 15.11l-3.215-3.7a1.153 1.153 0 0 1 1.691-1.566l.99 1.002a.75.75 0 0 0 1.068 0l.99-1.002Zm2.824-.93a2.653 2.653 0 0 0-3.891-.124L12 9.252l-.456-.462a2.653 2.653 0 0 0-3.891 3.604l3.78 4.35a.75.75 0 0 0 1.133 0l3.78-4.35a2.653 2.653 0 0 0 0-3.48Z"/></svg>
